img/about/icon3.svg

<svg width="50" height="50" viewBox="0 0 50 50" fill="none" xmlns="http://www.w3.org/2000/svg">
<path d="M45.9336 19.3903L46.6546 12.4964L40.3218 9.67918L37.5057 3.3464L30.6117 4.06643L25 0L19.3893 4.06643L12.4964 3.3464L9.67918 9.67815L3.3464 12.4964L4.06643 19.3893L0 25L4.06643 30.6097L3.34537 37.5036L9.67815 40.3208L12.4943 46.6536L19.3883 45.9336L25 50L30.6107 45.9336L37.5036 46.6536L40.3208 40.3218L46.6536 37.5036L45.9336 30.6107L50 25L45.9336 19.3903ZM44.446 36.2286L38.758 38.759L36.2276 44.446L30.0392 43.8003L25 47.452L19.9608 43.8003L13.7714 44.446L11.241 38.758L5.55395 36.2286L6.19971 30.0402L2.54797 25L6.20074 19.9608L5.55498 13.7714L11.243 11.241L13.7735 5.55395L19.9618 6.19971L25 2.54797L30.0392 6.19971L36.2286 5.55395L38.759 11.242L44.446 13.7714L43.8003 19.9598L47.452 25L43.7993 30.0392L44.446 36.2286Z" fill="#0083C1"/>
<path d="M21.3112 31.825L14.7418 25.4442L13.2656 26.8779L21.3112 34.6924L39.7962 16.7384L38.3201 15.3047L21.3112 31.825Z" fill="#0083C1"/>
</svg>

<svg width="50" height="50" fill="none" xmlns="http://www.w3.org/2000/svg"><path d="M45.934 19.39l.72-6.894-6.332-2.817-2.816-6.333-6.894.72L25 0l-5.61 4.066-6.894-.72L9.68 9.678l-6.333 2.818.72 6.893L0 25l4.066 5.61-.72 6.894 6.332 2.817 2.816 6.333 6.894-.72L25 50l5.61-4.066 6.894.72 2.817-6.332 6.333-2.818-.72-6.893L50 25l-4.066-5.61zm-1.488 16.84l-5.688 2.53-2.53 5.687-6.189-.646L25 47.452 19.96 43.8l-6.189.646-2.53-5.688-5.687-2.53.646-6.188L2.548 25l3.653-5.04-.646-6.189 5.688-2.53 2.53-5.687 6.189.646L25 2.548 30.04 6.2l6.189-.646 2.53 5.688 5.687 2.53-.646 6.188L47.452 25l-3.653 5.04.647 6.189z" fill="#0083C1"/><path d="M21.311 31.825l-6.57-6.38-1.475 1.433 8.045 7.814 18.485-17.954-1.476-1.433-17.009 16.52z" fill="#0083C1"/></svg>
